static/images/mobile/copyright/wikipedia-wordmark-cy.svg

<?xml version="1.0" encoding="UTF-8"?>
<svg width="120px" height="18px" viewBox="0 0 120 18" version="1.1" xmlns="http://www.w3.org/2000/svg" xmlns:xlink="http://www.w3.org/1999/xlink">
    <title>wikipedia-wordmark-cy</title>
    <g id="Page-1" stroke="none" stroke-width="1" fill="none" fill-rule="evenodd">
        <path d="M18.3392401,0.000836009062 C18.406498,0.000928735419 18.4727969,0.00102684322 18.5379306,0.00112909058 L18.9131018,0.00178231465 C18.9727503,0.00189615282 19.0308213,0.0020116468 19.0871086,0.00212755475 L19.4017803,0.00281803495 C19.4501086,0.00293063124 19.496241,0.00304115774 19.5399714,0.00314837259 L19.8631224,0.00399036103 C19.890585,0.00406652911 19.915027,0.00413565992 19.9362424,0.0041965116 L20.0344947,0.00448710938 L20.0920418,0.0579958887 L20.0920418,0.558757295 C20.0920418,0.697072442 20.0143027,0.765725215 19.8608435,0.765725215 C19.1076822,0.801061201 18.9532135,0.875771572 18.6775928,1.27254422 C18.5271624,1.48960814 18.2303402,1.95503356 17.9224123,2.47699655 L15.2792805,7.41999624 C15.2792805,7.41999624 15.2534608,7.47393483 15.2055156,7.57389898 L18.4352889,14.1843136 L18.6311512,14.2378224 L23.7195332,2.16200148 C23.8962132,1.67537446 23.868954,1.3300914 23.6417941,1.12716188 C23.4136245,0.929280352 23.2530982,0.812166797 22.663492,0.787936406 L22.1859514,0.763706016 C22.1273946,0.763706016 22.0718667,0.742504424 22.0183579,0.703130039 C21.9658587,0.665774854 21.9385995,0.616304473 21.9385995,0.556738096 L21.9385995,0.0539574902 L22.0112907,0.00246791016 L27.7599509,0.00246791016 L27.8185076,0.0539574902 L27.8185076,0.556738096 C27.8185076,0.693034043 27.7407685,0.761686817 27.5873093,0.761686817 C26.834148,0.795003604 26.2758394,0.95855874 25.9144028,1.25033303 C25.5519565,1.54412651 25.2692686,1.94897596 25.0663391,2.47497735 C25.0663391,2.47497735 23.6220508,5.78079287 22.0636805,9.32969476 L21.7956619,9.93988772 C20.6315567,12.5894233 19.4464429,15.2765241 18.7856199,16.7456678 C18.172793,17.912765 17.570062,17.8057474 17.0400222,16.712351 C16.6058738,15.8182167 15.8660055,14.2189836 15.1227821,12.5958997 L14.7716683,11.8279683 C14.4985278,11.2297311 14.2314883,10.6430003 13.9859573,10.1024905 C13.7054415,10.6810618 13.3978511,11.3134814 13.0833718,11.9564412 L12.8372933,12.4588029 C12.7961646,12.5426352 12.7550073,12.6264577 12.7138653,12.7101764 L12.4675457,13.2104949 C11.7721423,14.620287 11.1064438,15.9459034 10.6856023,16.7264854 C9.97080574,17.9693026 9.38220917,17.806757 8.91375495,16.7587926 C7.28728998,12.9213045 3.94753447,6.18323672 2.37558788,2.40733418 C2.08482319,1.71172005 1.86574008,1.26547702 1.65877216,1.08879709 C1.45079464,0.914136358 1.01868601,0.809137998 0.36143666,0.773802012 C0.120142354,0.747552422 0,0.688995645 0,0.594093281 L0,0.0680918848 L0.0585567774,0.0166023047 C0.184459787,0.0158896461 0.367235745,0.015344672 0.591760176,0.0149377908 L1.59988279,0.0140015017 C1.67619869,0.0139745304 1.75394228,0.0139538781 1.83287723,0.0139390824 L2.56907786,0.0139515663 C2.65303409,0.0139677491 2.73747273,0.0139884014 2.82215744,0.0140130608 L4.55565261,0.0149613714 C4.63220278,0.0150194753 4.7073448,0.0150783497 4.78084233,0.0151375325 L5.73042954,0.0159905958 C5.7815743,0.0160413019 5.82989298,0.0160900043 5.87514926,0.0161362408 L6.30797836,0.0166023047 L6.36653514,0.0680918848 L6.36653514,0.568853291 C6.36653514,0.707168438 6.27869997,0.773802012 6.10605844,0.773802012 L5.45385709,0.801061201 C4.89453891,0.824281992 4.61487982,0.991875528 4.61487982,1.30182261 C4.61487982,1.44619535 4.67343659,1.68042246 4.80367494,1.99642714 C6.05557846,5.04642756 10.3796936,14.1641216 10.3796936,14.1641216 L10.5382007,14.2055152 L13.3256675,8.64631871 C12.9847843,7.89322789 12.7673967,7.41090985 12.7673967,7.41090985 L10.8511766,3.6451033 C10.8511766,3.6451033 10.4806535,2.89194199 10.3544536,2.64156129 C9.51244752,0.972693135 9.53062031,0.883848369 8.67952784,0.771782813 C8.44126234,0.740485225 8.31809118,0.710197237 8.31809118,0.592074082 L8.31809118,0.0640534863 L8.38977276,0.0125639063 L8.90227076,0.0120167033 C8.9643157,0.0119621849 9.02786439,0.0119096857 9.09272032,0.0118591309 L10.579461,0.0110576584 C10.65299,0.011030661 10.7264507,0.0110050845 10.7996466,0.0109808541 L13.348926,0.010544707 L13.480174,0.0539574902 L13.480174,0.579958887 C13.480174,0.70010124 13.394358,0.761686817 13.2196973,0.761686817 L12.8602798,0.813176397 C11.9516402,0.883848369 12.1000513,1.25538103 12.7037919,2.45781416 L14.542,6.219 L16.5756064,2.16402067 C16.8931591,1.47143534 16.8536456,1.26343987 16.7328688,1.09924218 L16.7058447,1.0645667 C16.6250768,0.967645137 16.3545041,0.813176397 15.7659075,0.788946006 L15.5347092,0.763706016 C15.4761524,0.763706016 15.421634,0.743514024 15.3681253,0.704139639 C15.3156261,0.666784453 15.2893765,0.618323672 15.2893765,0.556738096 L15.2893765,0.0559766895 L15.3610581,0.00448710938 C15.6092803,0.00274642039 15.9108337,0.00160596899 16.2399493,0.000910521313 Z M29.1239199,5.31800985 C29.8326589,5.31800985 31.8538773,5.26551068 31.8538773,5.26551068 L31.8801269,5.31800985 L31.8801269,5.89550083 C31.8801269,5.9742496 31.8276277,6.02674878 31.7226293,6.02674878 L31.1713879,6.08025756 C30.3576507,6.15799673 30.0689052,6.36900305 30.0689052,6.89500445 L30.0689052,15.6361179 C30.0689052,16.2136088 30.3314011,16.5548535 31.1713879,16.6336023 L31.7226293,16.6871111 C31.8013781,16.6871111 31.8801269,16.7386006 31.8801269,16.843599 L31.8801269,17.3948404 L31.8538773,17.4483492 C31.8538773,17.4483492 29.8589085,17.3948404 29.0451712,17.3948404 C28.3101827,17.3948404 26.2627146,17.4483492 26.2627146,17.4483492 L26.2102155,17.3948404 L26.2102155,16.843599 C26.2102155,16.7386006 26.2889642,16.6871111 26.3939626,16.6871111 L26.9189544,16.6336023 C27.7851909,16.5548535 28.0476868,16.1348601 28.0476868,15.6361179 L28.0476868,6.89500445 C28.0476868,6.31852307 27.7316821,6.15900633 26.9189544,6.08227676 L26.3939626,6.02775838 C26.2889642,6.02775838 26.2102155,6.00352799 26.2102155,5.92276002 L26.2102155,5.31800985 L26.2364651,5.26551068 C26.2364651,5.26551068 28.3101827,5.31800985 29.1239199,5.31800985 Z M39.9917085,17.6448172 C42.0149421,17.6448172 43.2600116,16.8847907 44.4791405,15.2337016 L43.9603618,14.8143745 C42.7671725,16.2295908 41.8593072,16.7537446 40.1214037,16.7537446 C36.9827978,16.7537446 36.0489938,13.8446843 36.0489938,11.2501244 C36.0489938,6.84724029 38.0722305,5.82513174 40.0176471,5.82513174 C42.2743304,5.82513174 43.4156454,7.08310295 43.726911,8.9176363 L44.4013236,8.83898849 C44.2456898,7.76447163 44.1159956,6.66374556 44.0900559,5.48440197 C43.1043788,5.48440197 41.9371242,5.06507486 39.8620133,5.06507486 C36.4380804,5.06507486 33.7923085,7.68585411 33.7923085,11.5121761 C33.7923085,14.526053 35.9971206,17.6448172 39.9917085,17.6448172 M50.7556012,15.6361179 C50.7556012,16.2136088 51.0180971,16.5548535 51.8580839,16.6336023 L52.4093253,16.6871111 C52.4880741,16.6871111 52.5668229,16.7386006 52.5668229,16.843599 L52.5668229,17.3948404 L52.5405733,17.4483492 C52.5405733,17.4483492 50.5456045,17.3948404 49.7318672,17.3948404 C48.9968787,17.3948404 46.9494106,17.4483492 46.9494106,17.4483492 L46.8969115,17.3948404 L46.8969115,16.843599 C46.8969115,16.7386006 46.9756602,16.6871111 47.0806586,16.6871111 L47.6056504,16.6336023 C48.4718869,16.5548535 48.7343828,16.1348601 48.7343828,15.6361179 L48.7343828,6.89500445 C48.7343828,6.31852307 48.4193877,6.15900633 47.6056504,6.08227676 L47.0806586,6.02775838 C46.9756602,6.02775838 46.8969115,6.00352799 46.8969115,5.92276002 L46.8969115,5.31800985 L46.9231611,5.26551068 C46.9231611,5.26551068 48.9968787,5.31800985 49.8106159,5.31800985 C50.5193549,5.31800985 52.5405733,5.26551068 52.5405733,5.26551068 L52.5668229,5.31800985 L52.5668229,5.89550083 C52.5668229,5.9742496 52.5143237,6.02674878 52.4093253,6.02674878 L51.8580839,6.08025756 C51.0443467,6.15799673 50.7556012,6.36900305 50.7556012,6.89500445 L50.7556012,15.6361179 L50.7556012,15.6361179 Z M56.7304117,6.94649403 C56.7304117,6.13275674 56.389167,6.10650715 55.1554363,6.02775838 C54.9979387,6.02775838 54.9716891,5.95001921 54.9716891,5.89651043 L54.9716891,5.29276986 L55.0241883,5.26652027 C55.4179322,5.26652027 56.966658,5.31901945 57.7278961,5.31901945 C58.4628846,5.31901945 59.5128682,5.26652027 60.484103,5.26652027 C64.2095256,5.26652027 64.8920149,7.10298196 64.8920149,8.46997984 C64.8920149,10.0459648 64.1307768,12.5124167 60.4053542,12.5124167 C59.7491145,12.5124167 59.2241227,12.4589079 58.7506205,12.2499208 L58.7506205,15.7653466 C58.7506205,16.3428376 59.0656156,16.4750951 59.906612,16.6053335 L60.4326134,16.6840823 C60.5376118,16.7103318 60.6163606,16.737591 60.6163606,16.8415798 L60.6163606,17.3928212 L60.5911206,17.4453204 C60.5911206,17.4453204 58.4911534,17.3928212 57.6774161,17.3928212 C56.9424276,17.3928212 54.9737083,17.4453204 54.9737083,17.4453204 L54.9474588,17.3928212 L54.9474588,16.8415798 C54.9474588,16.7365814 54.9999579,16.7103318 55.1049563,16.6840823 L55.6561977,16.6053335 C56.469935,16.5003351 56.7324309,16.2640888 56.7324309,15.7653466 L56.7304117,6.94649403 L56.7304117,6.94649403 L56.7304117,6.94649403 Z M58.7516301,11.5149323 C59.2766219,11.7259386 59.9328616,11.7511786 60.4578534,11.7511786 C62.0338384,11.7511786 62.7920477,10.8041741 62.7920477,8.78497491 C62.7920477,6.52751019 61.7683137,6.02876798 60.3266055,6.02876798 C59.0656156,6.02876798 58.7506205,6.26501429 58.7506205,6.94750362 L58.7516301,11.5149323 L58.7516301,11.5149323 L58.7516301,11.5149323 Z M79.6887068,16.6871111 L80.2924474,16.6336023 C81.0809446,16.5548535 81.3434405,16.3186072 81.3434405,15.5058795 L81.3434405,6.84351486 C81.3434405,6.15900633 81.1576742,6.15900633 80.2924474,6.08227676 L79.7169756,6.02775838 C79.6119772,6.02775838 79.5312092,5.9752592 79.5312092,5.89651043 L79.5312092,5.31901945 L79.5564492,5.26652027 C79.5564492,5.26652027 81.8674227,5.31901945 82.340925,5.31901945 C82.837648,5.31901945 85.1233815,5.26652027 85.8058708,5.26652027 C90.1895523,5.26652027 92.3430283,7.99647762 92.3430283,11.4876731 C92.3430283,16.0823609 89.0870696,17.4453204 86.1743747,17.4453204 C84.0744075,17.4453204 83.1566814,17.3928212 82.3429442,17.3928212 C81.5544469,17.3928212 79.559478,17.4453204 79.559478,17.4453204 L79.5332284,17.3928212 L79.5332284,16.8415798 C79.5312092,16.7658598 79.584718,16.6871111 79.6887068,16.6871111 L79.6887068,16.6871111 Z M85.5433749,16.6871111 C88.4298202,16.6871111 90.059314,15.6118875 90.059314,11.9349257 C90.059314,9.20597795 89.4545638,6.02775838 85.0446327,6.02775838 C84.0208987,6.02775838 83.364659,6.18525592 83.364659,6.84351486 L83.364659,15.5058795 C83.364659,16.2388488 83.5473965,16.6871111 85.5433749,16.6871111 Z M98.7418706,15.6361179 C98.7418706,16.2136088 99.0043665,16.5548535 99.8443534,16.6336023 L100.395595,16.6871111 C100.474344,16.6871111 100.553092,16.7386006 100.553092,16.843599 L100.553092,17.3948404 L100.526843,17.4483492 C100.526843,17.4483492 98.5318739,17.3948404 97.7191462,17.3948404 C96.9831481,17.3948404 94.9366897,17.4483492 94.9366897,17.4483492 L94.8831809,17.3948404 L94.8831809,16.843599 C94.8831809,16.7386006 94.9619297,16.6871111 95.066928,16.6871111 L95.5929294,16.6336023 C96.4581563,16.5548535 96.7216618,16.1348601 96.7216618,15.6361179 L96.7216618,6.89500445 C96.7216618,6.31852307 96.4056571,6.15900633 95.5929294,6.08227676 L95.066928,6.02775838 C94.9619297,6.02775838 94.8831809,6.00352799 94.8831809,5.92276002 L94.8831809,5.31800985 L94.9094305,5.26551068 C94.9094305,5.26551068 96.9831481,5.31800985 97.7948662,5.31800985 C98.5036051,5.31800985 100.525833,5.26551068 100.525833,5.26551068 L100.551073,5.31800985 L100.551073,5.89550083 C100.551073,5.9742496 100.497564,6.02674878 100.393576,6.02674878 L99.8423342,6.08025756 C99.0285969,6.15799673 98.7398514,6.36900305 98.7398514,6.89500445 L98.7418706,15.6361179 L98.7418706,15.6361179 L98.7418706,15.6361179 Z M106.929723,16.6336023 L107.690962,16.6871111 C107.79596,16.6871111 107.900958,16.7658598 107.900958,16.8960982 L107.900958,17.3948404 L107.848459,17.4483492 C107.848459,17.4483492 104.987254,17.3948404 104.357264,17.3948404 C103.673765,17.3948404 101.993791,17.4483492 101.993791,17.4483492 L101.940282,17.3948404 L101.940282,16.8960982 C101.940282,16.7658598 102.019031,16.6871111 102.151289,16.6871111 C103.30728,16.6083623 103.961501,16.397356 104.696489,14.7173822 L110.522888,1.0665859 C110.810624,0.384096563 111.021631,0.120591064 111.416384,0.120591064 C111.782869,0.120591064 111.915126,0.384096563 112.124113,0.90908836 L117.505279,15.1363661 C117.873783,16.1611097 118.398775,16.5538439 119.448759,16.6588423 L119.737504,16.6840823 C119.868752,16.6840823 120,16.762831 120,16.8950886 L120,17.3928212 L119.921251,17.4453204 C119.921251,17.4453204 117.900033,17.3928212 116.876299,17.3928212 C115.957563,17.3928212 113.384094,17.4453204 113.384094,17.4453204 L113.358854,17.3928212 L113.358854,16.8950886 C113.358854,16.762831 113.411353,16.6840823 113.54462,16.6840823 L114.279609,16.6315831 C115.276083,16.5538439 115.645597,16.2368296 115.382091,15.5028507 L113.780866,11.0656604 L108.320952,11.0656604 C107.690962,11.0656604 107.533464,11.1706588 107.403226,11.5108939 L105.87974,15.318094 C105.617244,15.9763529 105.958489,16.5548535 106.929723,16.6336023 L106.929723,16.6336023 Z M113.360873,9.96418726 L110.814663,2.95655637 L110.762164,2.95655637 L108.137205,9.62395219 C108.032206,9.88745769 108.214944,9.96519686 108.792435,9.96519686 L113.360873,9.96519686 L113.360873,9.96418726 Z M69.5139619,17.3948404 C68.7264742,17.3948404 66.9162621,17.4483492 66.9162621,17.4483492 L66.8890029,17.3948404 L66.8890029,16.8173494 C66.8890029,16.7658598 66.9162621,16.6871111 67.0465005,16.6871111 L67.6512506,16.6336023 C68.4659975,16.5548535 68.7022438,16.0298617 68.7022438,15.5058795 L68.7022438,6.84351486 C68.7022438,6.2377551 68.3862392,6.13376634 67.6512506,6.08227676 L67.0465005,6.02775838 C66.8890029,6.00352799 66.8890029,5.95001921 66.8890029,5.92276002 L66.8890029,5.31800985 L66.9162621,5.26551068 C66.9162621,5.26551068 68.9627205,5.31800985 69.7502082,5.31800985 L73.6088979,5.31800985 C74.3963856,5.31800985 76.2611161,5.26551068 76.2611161,5.26551068 L76.3146249,5.31800985 C76.3398649,6.44674222 76.523612,7.47249542 76.7083687,8.46897024 L76.0531386,8.5739686 C75.7654027,7.60172417 75.2666605,6.21150551 73.5866867,6.21150551 L71.4867196,6.21150551 C70.9879774,6.21150551 70.7254815,6.39525264 70.7254815,6.84048607 L70.7254815,10.6476862 L72.6931911,10.6476862 C73.4291892,10.6476862 73.6119267,10.3326911 73.7179347,9.80769932 L73.8744226,9.25645793 C73.8744226,9.17770916 73.9279314,9.12420038 74.0319202,9.12420038 L74.4771536,9.12420038 C74.5306624,9.12420038 74.5306624,9.15145957 74.5306624,9.20294915 C74.4771536,9.78044013 74.3731648,10.5164382 74.3731648,11.1464284 C74.3731648,11.8016585 74.4781632,12.3539095 74.5306624,12.9576501 L74.4771536,13.0111589 L74.0319202,13.0111589 C73.9016818,13.0111589 73.8471634,12.9576501 73.8471634,12.8789013 L73.7159155,12.30242 C73.6109171,11.7764186 73.3746708,11.4876731 72.6901623,11.4876731 L70.7234623,11.4876731 L70.7234623,15.5048699 C70.7234623,16.0026025 71.0101885,16.5013447 71.4847004,16.5013447 L73.9784114,16.5013447 C75.3171405,16.5013447 76.0531386,15.6613579 76.3671241,14.2953696 L77.0223542,14.3741184 L76.4963528,17.3918116 L76.4438536,17.4443108 C76.4438536,17.4443108 74.8951278,17.3918116 74.1076401,17.3918116 L69.5139619,17.3948404 L69.5139619,17.3948404 L69.5139619,17.3948404 Z" id="wikipedia-wordmark-cy" fill="#000000" fill-rule="nonzero"></path>
    </g>
</svg>

<svg xmlns="http://www.w3.org/2000/svg" width="120" height="18"><path fill="#000" fill-rule="nonzero" d="m18.34 0 .198.001h.375l.174.001h.315l.138.001.323.001H20.034l.058.054v.5c0 .14-.078.208-.231.208-.753.035-.908.11-1.183.507-.15.217-.448.682-.756 1.204L15.28 7.42l-.073.154 3.23 6.61.195.054L23.72 2.162c.176-.487.149-.832-.078-1.035-.228-.198-.389-.315-.979-.34l-.477-.023a.28.28 0 0 1-.168-.06.174.174 0 0 1-.08-.147V.054l.073-.052h5.749l.059.052v.503c0 .136-.078.205-.232.205-.753.033-1.311.197-1.673.488-.362.294-.645.699-.848 1.225 0 0-1.444 3.306-3.002 6.855l-.268.61c-1.164 2.65-2.35 5.337-3.01 6.806-.613 1.167-1.216 1.06-1.746-.034a244.902 244.902 0 0 1-1.917-4.116l-.351-.768-.786-1.726c-.28.58-.588 1.211-.903 1.854l-.246.503c-.04.084-.082.167-.123.251l-.246.5a128.764 128.764 0 0 1-1.782 3.516c-.715 1.243-1.304 1.08-1.772.033C7.287 12.92 3.948 6.183 2.376 2.407c-.291-.695-.51-1.142-.717-1.318C1.45.914 1.019.809.36.774.121.748 0 .689 0 .594V.068L.059.017.592.015 1.6.014h1.222l1.734.001h.225l.95.001h.577l.059.052v.5c0 .14-.088.206-.26.206L5.453.8c-.56.023-.84.19-.84.5 0 .145.06.38.19.695 1.252 3.05 5.576 12.168 5.576 12.168l.158.042 2.788-5.56-.559-1.235-1.916-3.766s-.37-.753-.497-1.003C9.512.972 9.531.884 8.68.772 8.44.74 8.318.71 8.318.592V.064L8.39.013l.512-.001h1.677L10.8.01h2.55l.131.043V.58c0 .12-.086.182-.26.182l-.36.051c-.908.07-.76.442-.156 1.645l1.838 3.761 2.034-4.055c.317-.693.278-.9.157-1.065l-.027-.034c-.08-.097-.351-.252-.94-.276l-.231-.025a.276.276 0 0 1-.167-.06.172.172 0 0 1-.079-.147V.056l.072-.052.879-.003Zm10.784 5.318c.709 0 2.73-.052 2.73-.052l.026.052v.578c0 .078-.052.13-.157.13l-.552.054c-.813.078-1.102.289-1.102.815v8.741c0 .578.262.919 1.102.998l.552.053c.078 0 .157.052.157.157v.55l-.026.054s-1.995-.053-2.809-.053c-.735 0-2.782.053-2.782.053l-.053-.053v-.551c0-.105.079-.157.184-.157l.525-.053c.866-.08 1.129-.5 1.129-.998V6.895c0-.576-.316-.736-1.129-.813l-.525-.054c-.105 0-.184-.024-.184-.105v-.605l.026-.052s2.074.052 2.888.052Zm10.868 12.327c2.023 0 3.268-.76 4.487-2.411l-.519-.42c-1.193 1.416-2.1 1.94-3.839 1.94-3.138 0-4.072-2.91-4.072-5.504 0-4.403 2.023-5.425 3.969-5.425 2.256 0 3.398 1.258 3.709 3.093l.674-.079c-.155-1.075-.285-2.175-.31-3.355-.987 0-2.154-.419-4.229-.419-3.424 0-6.07 2.62-6.07 6.447 0 3.014 2.205 6.133 6.2 6.133m10.764-2.009c0 .578.262.919 1.102.998l.551.053c.08 0 .158.052.158.157v.55l-.026.054s-1.995-.053-2.81-.053c-.734 0-2.782.053-2.782.053l-.052-.053v-.551c0-.105.079-.157.184-.157l.525-.053c.866-.08 1.128-.5 1.128-.998V6.895c0-.576-.315-.736-1.128-.813l-.525-.054c-.105 0-.184-.024-.184-.105v-.605l.026-.052s2.074.052 2.888.052c.708 0 2.73-.052 2.73-.052l.026.052v.578c0 .078-.053.13-.158.13l-.55.054c-.815.078-1.103.289-1.103.815v8.741Zm5.974-8.69c0-.813-.34-.84-1.575-.918-.157 0-.183-.078-.183-.131v-.604l.052-.026c.394 0 1.943.052 2.704.052.735 0 1.785-.052 2.756-.052 3.726 0 4.408 1.836 4.408 3.203 0 1.576-.761 4.042-4.487 4.042-.656 0-1.18-.053-1.654-.262v3.515c0 .578.315.71 1.156.84l.526.08c.105.025.183.053.183.157v.55l-.025.053s-2.1-.052-2.914-.052c-.735 0-2.703.052-2.703.052l-.027-.052v-.551c0-.105.053-.132.158-.158l.551-.079c.814-.105 1.076-.34 1.076-.84l-.002-8.819Zm2.022 4.569c.525.21 1.18.236 1.706.236 1.576 0 2.334-.947 2.334-2.966 0-2.257-1.024-2.756-2.465-2.756-1.261 0-1.576.236-1.576.919v4.567Zm20.937 5.172.603-.053c.789-.08 1.051-.315 1.051-1.128V6.844c0-.685-.185-.685-1.05-.762l-.576-.054c-.105 0-.186-.053-.186-.131v-.578l.025-.052s2.311.052 2.785.052c.497 0 2.782-.052 3.465-.052 4.384 0 6.537 2.73 6.537 6.22 0 4.595-3.256 5.958-6.169 5.958-2.1 0-3.017-.052-3.831-.052-.789 0-2.784.052-2.784.052l-.026-.052v-.551a.148.148 0 0 1 .156-.155Zm5.854 0c2.887 0 4.516-1.075 4.516-4.752 0-2.729-.604-5.907-5.014-5.907-1.024 0-1.68.157-1.68.816v8.662c0 .733.182 1.181 2.178 1.181Zm13.199-1.05c0 .577.262.918 1.102.997l.552.053c.078 0 .157.052.157.157v.55l-.026.054s-1.995-.053-2.808-.053c-.736 0-2.782.053-2.782.053l-.054-.053v-.551c0-.105.079-.157.184-.157l.526-.053c.865-.08 1.129-.5 1.129-.998V6.895c0-.576-.316-.736-1.13-.813l-.525-.054c-.105 0-.184-.024-.184-.105v-.605l.026-.052s2.074.052 2.886.052c.709 0 2.73-.052 2.73-.052l.026.052v.578c0 .078-.053.13-.157.13l-.552.054c-.813.078-1.102.289-1.102.815l.002 8.741Zm8.188.997.761.053c.105 0 .21.079.21.21v.498l-.053.053s-2.86-.053-3.49-.053c-.684 0-2.364.053-2.364.053l-.054-.053v-.499c0-.13.079-.209.211-.209 1.156-.079 1.81-.29 2.545-1.97l5.827-13.65c.288-.683.499-.946.893-.946.367 0 .5.263.708.788l5.381 14.227c.369 1.025.894 1.418 1.944 1.523l.289.025c.13 0 .262.079.262.211v.498l-.079.052s-2.021-.052-3.045-.052c-.918 0-3.492.052-3.492.052l-.025-.052v-.498c0-.132.052-.21.186-.21l.735-.053c.996-.078 1.366-.395 1.102-1.13l-1.601-4.436h-5.46c-.63 0-.788.105-.918.445l-1.523 3.807c-.263.658.078 1.237 1.05 1.316Zm6.43-6.67-2.545-7.007h-.053l-2.625 6.667c-.105.263.078.341.655.341h4.569Zm-43.846 7.43c-.788 0-2.598.054-2.598.054l-.027-.053v-.578c0-.051.027-.13.158-.13l.604-.053c.815-.08 1.051-.604 1.051-1.128V6.844c0-.606-.316-.71-1.05-.762l-.605-.054c-.158-.024-.158-.078-.158-.105v-.605l.027-.052s2.047.052 2.834.052h3.859c.787 0 2.652-.052 2.652-.052l.054.052c.025 1.129.209 2.154.393 3.151l-.655.105c-.288-.972-.786-2.362-2.466-2.362h-2.1c-.499 0-.762.183-.762.628v3.808h1.968c.736 0 .919-.315 1.025-.84l.156-.552c0-.078.054-.132.158-.132h.445c.054 0 .054.027.054.079-.054.577-.158 1.313-.158 1.943 0 .656.105 1.208.158 1.812l-.054.053h-.445c-.13 0-.185-.053-.185-.132l-.131-.577c-.105-.526-.341-.814-1.026-.814h-1.967v4.017c0 .498.287.996.762.996h2.493c1.34 0 2.075-.84 2.39-2.206l.654.08-.526 3.017-.052.052s-1.549-.052-2.336-.052l-4.594.003Z"/></svg>
